!!!!SEGMENT: pl-wtm--r-245-n--004_noskowski-zygmunt--piesni-ludowe-haslo-liry-lodzkiej.krn
!!!cenid: 18xx:2151
!!!COM: Noskowski, Zygmunt
!!!COM-rismid: pe106604
!!!CDT: 1846/05/02-1909/07/23
!!!CNT: Polish
!!!GTL: Pieśni ludowe
!!!OTL: Hasło Liry Łódzkiej
!!!PDT:
!!!AGN: Secular; Song
!!!SMS-siglum: PL-Wtm
!!!SMS-shelfmark: R 245/N
!!!SMS-shelfwork: 004 G
!!!SMS-variant:
!!!SMS-altvar:
!!!NIFC-rismid: 1001100025
!!!URL-scan: http://repozytorium.nifc.pl/skany/pl-wtm-nut--r245n
!!!ONB-nifc: UWAGA: w zbiorze: 1. Młynarz, 2. Na Mazurze, 3. Kędy jedziesz?, 4. Hasło Liry Łódzkiej
!!!key:
**kern	**text	**dynam	**kern	**text	**dynam
*part2	*part2	*part2	*part1	*part1	*part1
*staff2	*staff2	*	*staff1	*staff1	*
*Ibass	*	*	*Itenor	*	*
*I"[Basy]	*	*	*I"[Tenory]	*	*
*clefF4	*	*	*clefG2	*	*
*k[b-e-a-]	*	*	*k[b-e-a-]	*	*
*E-:	*	*	*E-:	*	*
*M3/4	*	*	*M3/4	*	*
=1	=1	=1	=1	=1	=1
*^	*	*	*^	*	*
!	!	!	!	!LO:TX:a:i:t=Moderato risoluto.	!	!	!
!	!	!	!LO:DY:a:rj	!LO:TX:a:i:t=Hasło Liry Łódzkiej.	!	!	!LO:DY:a:rj
16E-/LL	16E-\LL	.	f	16g/LL	16g\LL	Nie-	f
16BB-/JJ	16BB-\JJ	.	.	16f/JJ	16f\JJ	.	.
16E-/LL	16E-\LL	.	.	16g/LL	16g\LL	-chaj	.
16F/JJ	16F\JJ	.	.	16a-/JJ	16a-\JJ	.	.
4.G/	4.G\	.	.	4.b-/	4.b-\	bło-	.
8F/	8C\	.	.	8ee-/	8an\	-go	.
=2	=2	=2	=2	=2	=2	=2	=2
8.F/	8.BB-\	bło-	.	8.dd/	8.b-\	pły-	.
16G/	16E-\	-go	.	16dd/	16b-\	-nie	.
2A-/	8AA-\	pły-	.	2cc/	2a-X\	czas,	.
.	(>16C\LL	-nie	.	.	.	.	.
.	16E-\JJ)	.	.	.	.	.	.
.	4A-\	czas,	.	.	.	.	.
=3	=3	=3	=3	=3	=3	=3	=3
16A-/LL	16A-\LL	.	.	16cc/LL	16cc\LL	Nie-	.
16E-/JJ	16E-\JJ	.	.	16b-/JJ	16b-\JJ	.	.
16A-/LL	16A-\LL	.	.	16cc/LL	8cc\	-chaj	.
16B-/JJ	16G\JJ	.	.	16een/JJ	.	.	.
4.B-/	4.En\	.	.	4.gg/	4.cc\	bło-	.
8A-/	8F\	.	.	8ff/	8cc\	-go	.
=4	=4	=4	=4	=4	=4	=4	=4
8.A-/	8.BB-\	.	.	8.ff/	8.dd\	pły-	.
16F/	16BB-\	.	.	16dd/	16b-\	-nie	.
2F/	2D\	.	.	2b-/	2a-\	czas.	.
!!LO:LB:g=original
=5	=5	=5	=5	=5	=5	=5	=5
8.E-/	8.D-X\	.	.	8.cc/	8.g\	Li-	.
16E-/	16D-\	.	.	16b-/	16g\	-ra	.
8E-/	8C\	.	.	8a-/	8a-\	pieś-	.
8A-/	8E-\	.	.	8cc/	8cc\	-nią	.
8A-/	8A-\	.	.	8ff/	8cc\	wi-	.
8A-/	16A-\LL	.	.	8ee-/	8cc\	-ta	.
.	16G\JJ	.	.	.	.	.	.
=6	=6	=6	=6	=6	=6	=6	=6
2.c/	2.F\	.	.	2.aa-/	2.ee-\	was!	.
=7	=7	=7	=7	=7	=7	=7	=7
4.Bn/	4.G\	.	.	4.gg/	4.dd\	Li-	.
8G/	8BBn\	.	.	8ff/	8dd\	-ra	.
8G/	8C\	.	.	8ee-/	8cc\	pieś-	.
8c/	8BB-X\	.	.	8gg/	8ee-\	-nią	.
=8	=8	=8	=8	=8	=8	=8	=8
!LO:TX:b:i:t=riten.	!	!	!	!LO:TX:a:i:t=riten	!	!	!
(<16c/LL	8AA-\	.	.	8ff/	8cc\	wi-	.
16A-/JJ)	.	.	.	.	.	.	.
8F/	8BB-\	.	.	16cc/LL	16a-\LL	-ta	.
.	.	.	.	16dd/JJ	16b-\JJ	.	.
(>4A-^^>/	(<4BB-\	.	.	(>4ff^^>/	(<4dd\	was!	.
8G/)	8E-\)	.	.	8ee-/)	8ee-\)	.	.
8r	8ryy	.	.	8r	8ryy	.	.
*v	*v	*	*	*	*	*	*
*	*	*	*v	*v	*	*
==	==	==	==	==	==
*-	*-	*-	*-	*-	*-
!!!system-decoration: {(s1,s2)}
!!!RDF**kern: > = above
!!!RDF**kern: < = below
!!!EED: Antoni Szymański
!!!EST: 2021-06-01
!!!AIN: 1 bass 1 tenor
!!!ENC: Marcin Jachim
!!!END: 2021-05-22
